X:253
T: SPINN SPINN MEINE LIEBE TOCHTER
N: E0838
O: Europa, Mitteleuropa, Deutschland, Bergisches Land; Kleve
R: Hochzeits -, Ehestands - Lied
M: 3/8
L: 1/16
K: D
A2 | d2dcdB | A2F2
A2 | G2E2A2 | D4
A2 | d2dcdB | A2F2
A2 | G2E2A2 | D4
D2 | F2F2F2 | A2A2
D2 | F2F2F2 | A2A2
A2 | d4A2 | d4
A2 | G2F2E2 | D4
D2 | F2F2F2 | A2A2
D2 | F2F2F2 | A2A2
A2 | d4A2 | d4
A2 | G2F2E2 | D4

@@@ Tune index: 4566
